components/Common/Svg/svgs/standOutFrom.svg

<svg
  width="90"
  height="90"
  viewBox="0 0 90 90"
  fill="none"
  xmlns="http://www.w3.org/2000/svg"
>
  <circle
    opacity="0.5"
    cx="45"
    cy="45"
    r="45"
    fill="#FFE603"
  ></circle>
  <path
    d="M47.7739 39.8661C48.0888 39.5071 48.2841 39.0473 48.2841 38.5307C48.2841 37.4032 47.3644 36.4835 46.2369 36.4835C45.1094 36.4835 44.1897 37.4032 44.1897 38.5307C44.1897 39.041 44.385 39.5071 44.6999 39.8661C44.3094 40.0362 43.9441 40.2693 43.6228 40.559C43.333 40.3952 43.0307 40.263 42.7157 40.1496C43.3141 39.6268 43.6984 38.8583 43.6984 37.9953C43.6984 36.4206 42.4197 35.1418 40.8386 35.1418C39.2576 35.1418 37.9851 36.4206 37.9851 37.9953C37.9851 38.852 38.3694 39.6205 38.9678 40.1496C38.6528 40.263 38.3505 40.3952 38.0607 40.559C37.7395 40.2693 37.3804 40.0362 36.9836 39.8661C37.2985 39.5071 37.4938 39.041 37.4938 38.5307C37.4938 37.4032 36.5742 36.4835 35.4466 36.4835C34.3191 36.4835 33.3994 37.4032 33.3994 38.5307C33.3994 39.041 33.5947 39.5071 33.9097 39.8661C32.5302 40.4645 31.5664 41.8314 31.5664 43.4251H32.5995C32.5995 41.8503 33.8782 40.5716 35.4466 40.5716C36.0765 40.5716 36.6875 40.7858 37.1789 41.1637C35.9506 42.2031 35.1695 43.7526 35.1695 45.4849H36.2025C36.2025 42.9275 38.2812 40.8488 40.8386 40.8488C43.396 40.8488 45.4747 42.9275 45.4747 45.4849H46.5078C46.5078 43.7526 45.7267 42.2031 44.5047 41.1637C44.996 40.7858 45.607 40.5716 46.2369 40.5716C47.8054 40.5716 49.0841 41.8503 49.0841 43.4251H50.1171C50.1171 41.8314 49.1534 40.4582 47.7739 39.8661ZM35.4529 39.5449C34.8923 39.5449 34.4388 39.085 34.4388 38.5307C34.4388 37.9701 34.8923 37.5166 35.4529 37.5166C36.0135 37.5166 36.4671 37.9701 36.4671 38.5307C36.4671 39.0913 36.0135 39.5449 35.4529 39.5449ZM40.8449 39.822C39.8371 39.822 39.0182 38.9969 39.0182 37.9953C39.0182 36.9875 39.8371 36.1686 40.8449 36.1686C41.8528 36.1686 42.6716 36.9875 42.6716 37.9953C42.6716 39.0032 41.8528 39.822 40.8449 39.822ZM46.2369 39.5449C45.6763 39.5449 45.2228 39.085 45.2228 38.5307C45.2228 37.9701 45.6763 37.5166 46.2369 37.5166C46.7975 37.5166 47.2511 37.9701 47.2511 38.5307C47.2511 39.0913 46.7975 39.5449 46.2369 39.5449Z"
    fill="black"
  ></path>
  <path
    d="M59.941 54.8453L53.3333 48.2376L52.3569 49.2139L50.6436 47.5006C51.9349 45.6046 52.6971 43.3117 52.6971 40.8488C52.6971 34.3166 47.3806 29.0002 40.8485 29.0002C34.3164 29.0002 29 34.3166 29 40.8488C29 47.3809 34.3164 52.6973 40.8485 52.6973C43.3115 52.6973 45.6043 51.9414 47.5003 50.6438L49.2137 52.3571L48.2373 53.3335L54.845 59.9412C55.5253 60.6215 56.4324 60.9995 57.3962 60.9995C58.3599 60.9995 59.267 60.6215 59.9473 59.9412C61.352 58.5365 61.352 56.25 59.941 54.8453ZM47.6515 49.2454C45.7933 50.7572 43.4248 51.6642 40.8485 51.6642C34.8833 51.6642 30.033 46.814 30.033 40.8488C30.033 34.8836 34.8833 30.0333 40.8485 30.0333C46.8137 30.0333 51.664 34.8836 51.664 40.8488C51.664 43.4251 50.7569 45.7935 49.2452 47.6518C49.22 47.6895 49.1885 47.721 49.1633 47.7588C48.7412 48.2691 48.2688 48.7415 47.7586 49.1635C47.7271 49.195 47.6893 49.2202 47.6515 49.2454ZM59.2166 59.2168C58.7316 59.7018 58.0827 59.9727 57.3962 59.9727C56.7096 59.9727 56.0608 59.7018 55.5757 59.2168L49.6987 53.3398L50.6751 52.3634L48.3444 50.0328C48.3696 50.0076 48.3948 49.9824 48.42 49.9635C48.6594 49.7619 48.8924 49.5541 49.1192 49.3336C49.1885 49.2643 49.2641 49.195 49.3334 49.1194C49.5538 48.8927 49.7617 48.6659 49.9633 48.4265C49.9885 48.4013 50.0137 48.3761 50.0326 48.3509L52.3632 50.6816L53.3396 49.7052L59.2166 55.5823C60.2181 56.5775 60.2181 58.209 59.2166 59.2168Z"
    fill="black"
  ></path>
  <path
    d="M56.4922 55.7224L55.7617 56.4529L56.4922 57.1833L57.2227 56.4529L56.4922 55.7224Z"
    fill="black"
  ></path>
  <path
    d="M55.0388 54.2631L54.3086 54.9939L55.0394 55.7241L55.7695 54.9933L55.0388 54.2631Z"
    fill="black"
  ></path>
  <path
    d="M53.5781 52.8091L52.8477 53.5396L53.5781 54.27L54.3086 53.5396L53.5781 52.8091Z"
    fill="black"
  ></path>
</svg>

<svg width="90" height="90" viewBox="0 0 90 90" fill="none" xmlns="http://www.w3.org/2000/svg"><circle opacity=".5" cx="45" cy="45" r="45" fill="#FFE603"/><path d="M47.774 39.866a2.01 2.01 0 0 0 .51-1.335c0-1.128-.92-2.047-2.047-2.047-1.128 0-2.047.92-2.047 2.047 0 .51.195.976.51 1.335-.39.17-.756.403-1.077.693a5.874 5.874 0 0 0-.907-.41 2.853 2.853 0 0 0-1.877-5.007 2.851 2.851 0 0 0-1.871 5.008 5.874 5.874 0 0 0-.907.409 3.89 3.89 0 0 0-1.077-.693c.314-.359.51-.825.51-1.335 0-1.128-.92-2.047-2.047-2.047-1.128 0-2.048.92-2.048 2.047 0 .51.196.976.51 1.335a3.88 3.88 0 0 0-2.343 3.56H32.6a2.854 2.854 0 0 1 2.847-2.854c.63 0 1.24.214 1.732.592a5.647 5.647 0 0 0-2.01 4.32h1.034a4.64 4.64 0 0 1 4.636-4.635 4.64 4.64 0 0 1 4.636 4.636h1.033a5.662 5.662 0 0 0-2.003-4.321 2.851 2.851 0 0 1 1.732-.592 2.854 2.854 0 0 1 2.847 2.853h1.033a3.873 3.873 0 0 0-2.343-3.559Zm-12.321-.321a1.013 1.013 0 1 1-.001-2.03 1.013 1.013 0 0 1 0 2.03Zm5.392.277a1.832 1.832 0 0 1-1.827-1.827 1.828 1.828 0 0 1 3.653 0 1.828 1.828 0 0 1-1.826 1.827Zm5.392-.277a1.013 1.013 0 1 1-.001-2.03 1.013 1.013 0 0 1 0 2.03Z" fill="#000"/><path d="m59.941 54.845-6.608-6.607-.976.976-1.713-1.713a11.79 11.79 0 0 0 2.053-6.652C52.697 34.317 47.381 29 40.848 29 34.317 29 29 34.317 29 40.85s5.316 11.848 11.849 11.848c2.463 0 4.755-.756 6.651-2.053l1.714 1.713-.977.977 6.608 6.607A3.588 3.588 0 0 0 57.396 61a3.602 3.602 0 0 0 2.545-6.154Zm-12.29-5.6a10.746 10.746 0 0 1-6.803 2.42c-5.965 0-10.815-4.851-10.815-10.816 0-5.965 4.85-10.816 10.816-10.816 5.965 0 10.815 4.85 10.815 10.816 0 2.576-.907 4.945-2.419 6.803-.025.038-.056.069-.082.107-.422.51-.894.983-1.404 1.404a.688.688 0 0 1-.108.082Zm11.566 9.972a2.564 2.564 0 0 1-1.82.756c-.687 0-1.336-.271-1.821-.756l-5.877-5.877.976-.977-2.33-2.33a.755.755 0 0 1 .075-.07c.24-.201.472-.409.7-.63.069-.069.144-.138.213-.214.22-.226.429-.453.63-.693a.755.755 0 0 0 .07-.075l2.33 2.33.977-.976 5.877 5.877a2.574 2.574 0 0 1 0 3.635Z" fill="#000"/><path d="m56.492 55.722-.73.73.73.731.73-.73-.73-.73ZM55.039 54.263l-.73.73.73.731.73-.73-.73-.73ZM53.578 52.81l-.73.73.73.73.73-.73-.73-.73Z" fill="#000"/></svg>
